X:168
T:March,A. JGi.168
M:C
L:1/8
Q:1/4=140
S:Joshua Gibbons MS,1823,Tealby,Lincs.
R:march
O:Tealby,Lincolnshire
Z:VMP/R.Greig, 2009
K:C
G2|:c2c>ce2e>e|g3fe2e2{fe}|d2d2 {ed}g>fe>d|e2c>cc2 G>G|
c2c>ce2e>e|d3g (^fedc)|B3d (dcBA)|G2g>gg2G2:|
|:g2e>ee2g>g|f2d>dd2f2{gf}|e2g>g f>f e>e|d2d>dd2 c/d/e/f/|
g2e>ee2g2|f2d>dd2f>f|e>e d>d c>c B>B|c2c>cc2z2:|

